vessel_track/img/book-ico.svg

<svg width="26" height="27" viewBox="0 0 26 27" fill="none" xmlns="http://www.w3.org/2000/svg">
<path d="M7.66667 7.00008V1.66675M18.3333 7.00008V1.66675M25 17.6667H1M5 25.6667H21C23.2091 25.6667 25 23.8759 25 21.6667V8.33341C25 6.12428 23.2091 4.33341 21 4.33341H5C2.79086 4.33341 1 6.12428 1 8.33341V21.6667C1 23.8759 2.79086 25.6667 5 25.6667Z" stroke="white" stroke-width="2" stroke-linecap="round" stroke-linejoin="round"/>
</svg>

<svg width="26" height="27" fill="none" xmlns="http://www.w3.org/2000/svg"><path d="M7.667 7V1.667M18.333 7V1.667m6.667 16H1m4 8h16a4 4 0 004-4V8.333a4 4 0 00-4-4H5a4 4 0 00-4 4v13.334a4 4 0 004 4z" stroke="#fff" stroke-width="2" stroke-linecap="round" stroke-linejoin="round"/></svg>
